ART/SVG/open-book.svg

<?xml version="1.0" encoding="UTF-8" standalone="no"?>
<!-- Generator: Adobe Illustrator 19.0.0, SVG Export Plug-In . SVG Version: 6.00 Build 0)  -->

<svg
   xmlns:dc="http://purl.org/dc/elements/1.1/"
   xmlns:cc="http://creativecommons.org/ns#"
   xmlns:rdf="http://www.w3.org/1999/02/22-rdf-syntax-ns#"
   xmlns:svg="http://www.w3.org/2000/svg"
   xmlns="http://www.w3.org/2000/svg"
   xmlns:sodipodi="http://sodipodi.sourceforge.net/DTD/sodipodi-0.dtd"
   xmlns:inkscape="http://www.inkscape.org/namespaces/inkscape"
   version="1.1"
   id="Layer_1"
   x="0px"
   y="0px"
   viewBox="0 0 45.354326 45.354684"
   xml:space="preserve"
   sodipodi:docname="open-book.svg"
   inkscape:version="0.92.3 (2405546, 2018-03-11)"
   width="45.354328"
   height="45.354687"><metadata
   id="metadata65"><rdf:RDF><cc:Work
       rdf:about=""><dc:format>image/svg+xml</dc:format><dc:type
         rdf:resource="http://purl.org/dc/dcmitype/StillImage" /><dc:title /></cc:Work></rdf:RDF></metadata><defs
   id="defs63" /><sodipodi:namedview
   pagecolor="#ffffff"
   bordercolor="#666666"
   borderopacity="1"
   objecttolerance="10"
   gridtolerance="10"
   guidetolerance="10"
   inkscape:pageopacity="0"
   inkscape:pageshadow="2"
   inkscape:window-width="1920"
   inkscape:window-height="1143"
   id="namedview61"
   showgrid="false"
   inkscape:zoom="9.2913406"
   inkscape:cx="-0.67559921"
   inkscape:cy="1.0902159"
   inkscape:window-x="0"
   inkscape:window-y="27"
   inkscape:window-maximized="1"
   inkscape:current-layer="Layer_1"
   fit-margin-top="0"
   fit-margin-left="0"
   fit-margin-right="0"
   fit-margin-bottom="0" />
<g
   id="g28"
   transform="translate(-233.32534,-233.32512)">
	<g
   id="g26">
		<g
   id="g24">
			
			
			
			
			
			
			
			
			
			
			<g
   id="g854"><g
     id="g867"
     transform="matrix(0.0885825,0,0,0.0885825,233.32516,233.32513)"><g
       id="g880"><g
         id="g886"><g
           id="g3727"
           transform="matrix(0.83333337,0,0,0.83333337,42.667073,42.667068)"><path
             transform="matrix(11.288911,0,0,11.288911,0.002032,-1.1288911e-4)"
             style="stroke-width:0.0885825"
             d="m 33.332031,8.3183594 c -0.09794,-0.00932 -0.200439,-1.304e-4 -0.300781,0.03125 -2.31156,0.7309828 -6.730528,2.9770396 -6.917969,3.0722656 -0.371869,0.188946 -0.519024,0.642958 -0.330078,1.015625 0.13376,0.261496 0.398691,0.414063 0.673828,0.414062 0.114892,0 0.234085,-0.02809 0.34375,-0.08398 0.04456,-0.02268 4.493135,-2.281451 6.6875,-2.9746092 C 33.885928,9.6667387 34.106699,9.2413083 33.980469,8.84375 33.886328,8.5455149 33.625857,8.3463293 33.332031,8.3183594 Z m 0,4.5351566 c -0.09794,-0.0093 -0.200439,-1.31e-4 -0.300781,0.03125 -2.31156,0.730982 -6.730528,2.977039 -6.917969,3.072265 -0.371958,0.188947 -0.519024,0.643047 -0.330078,1.015625 0.13376,0.261584 0.398691,0.414063 0.673828,0.414063 0.114892,0 0.234085,-0.02614 0.34375,-0.08203 0.04456,-0.02268 4.493135,-2.283405 6.6875,-2.976563 0.397647,-0.12623 0.618418,-0.55166 0.492188,-0.949219 -0.09414,-0.298235 -0.354612,-0.49742 -0.648438,-0.52539 z m -18.548828,0.759765 c -3.471443,-0.06682 -6.4968408,0.730612 -6.6640624,0.775391 -0.4028732,0.108071 -0.6432269,0.522111 -0.5351562,0.925781 0.090708,0.337854 0.3970442,0.560547 0.7304687,0.560547 0.06502,0 0.1314489,-0.008 0.1972657,-0.02539 0.050669,-0.01435 5.1559082,-1.358741 9.4570312,-0.349609 0.404379,0.09452 0.81493,-0.157771 0.910156,-0.564453 0.09514,-0.405885 -0.157771,-0.811024 -0.564453,-0.90625 -1.166919,-0.273831 -2.374102,-0.393741 -3.53125,-0.416016 z m 18.548828,3.775391 c -0.09794,-0.0093 -0.200439,0.0018 -0.300781,0.0332 -2.31156,0.730983 -6.730528,2.975086 -6.917969,3.070313 -0.371958,0.188946 -0.519024,0.645 -0.330078,1.017578 0.13376,0.261584 0.398691,0.412109 0.673828,0.412109 0.114892,0 0.234085,-0.02614 0.34375,-0.08203 0.04456,-0.02268 4.493135,-2.283405 6.6875,-2.976563 0.397647,-0.12623 0.618418,-0.55166 0.492188,-0.949219 -0.09414,-0.298235 -0.354612,-0.49742 -0.648438,-0.52539 z m -18.548828,0.761719 c -3.471443,-0.06671 -6.4968408,0.728659 -6.6640624,0.773437 -0.4028732,0.108071 -0.6432269,0.5222 -0.5351562,0.925781 0.090708,0.337854 0.3970442,0.560547 0.7304687,0.560547 0.06502,0 0.1314489,-0.008 0.1972657,-0.02539 0.050669,-0.01435 5.1559082,-1.358742 9.4570312,-0.34961 0.404379,0.09452 0.81493,-0.155817 0.910156,-0.5625 0.09514,-0.405885 -0.157771,-0.812977 -0.564453,-0.908203 -1.166919,-0.273631 -2.374102,-0.391825 -3.53125,-0.414062 z m 18.548828,3.773437 c -0.09794,-0.0093 -0.200439,0.0018 -0.300781,0.0332 -2.31156,0.730983 -6.730528,2.975087 -6.917969,3.070313 -0.371958,0.188946 -0.519024,0.645 -0.330078,1.017578 0.13376,0.261584 0.398691,0.412109 0.673828,0.412109 0.114892,0 0.234085,-0.02614 0.34375,-0.08203 0.04456,-0.02268 4.493135,-2.283404 6.6875,-2.976562 0.397647,-0.126231 0.618418,-0.551661 0.492188,-0.949219 -0.09414,-0.298235 -0.354612,-0.497421 -0.648438,-0.525391 z m -18.548828,0.761719 c -3.471443,-0.0669 -6.4968408,0.728061 -6.6640624,0.773437 -0.4028732,0.108071 -0.6432269,0.5222 -0.5351562,0.925782 0.090708,0.337853 0.3970442,0.560547 0.7304687,0.560546 0.06502,0 0.1314489,-0.0079 0.1972657,-0.02539 0.050669,-0.01435 5.1559082,-1.358741 9.4570312,-0.34961 0.404379,0.09452 0.81493,-0.155817 0.910156,-0.5625 0.09514,-0.405885 -0.157771,-0.812976 -0.564453,-0.908203 -1.166919,-0.273631 -2.374102,-0.391763 -3.53125,-0.414062 z m 18.548828,3.775391 c -0.09794,-0.0093 -0.200439,-1.31e-4 -0.300781,0.03125 -2.31156,0.730982 -6.730528,2.975086 -6.917969,3.070312 -0.371958,0.188946 -0.519024,0.645 -0.330078,1.017578 0.13376,0.261584 0.398691,0.412109 0.673828,0.41211 0.114892,0 0.234085,-0.02614 0.34375,-0.08203 0.04456,-0.02268 4.493135,-2.283404 6.6875,-2.976562 0.397647,-0.12623 0.618418,-0.551661 0.492188,-0.949219 -0.09414,-0.298169 -0.354612,-0.495447 -0.648438,-0.523437 z m -18.548828,0.759765 c -3.471443,-0.06701 -6.4968408,0.728061 -6.6640624,0.773438 -0.4028732,0.10807 -0.6432269,0.522199 -0.5351562,0.925781 0.090708,0.337854 0.3970442,0.560547 0.7304687,0.560547 0.06502,0 0.1314489,-0.0079 0.1972657,-0.02539 0.050669,-0.01435 5.1559082,-1.356788 9.4570312,-0.347656 0.404379,0.09452 0.81493,-0.157771 0.910156,-0.564453 0.09514,-0.405885 -0.157771,-0.812977 -0.564453,-0.908203 -1.166919,-0.273831 -2.374102,-0.391726 -3.53125,-0.414063 z m 0,4.535156 c -3.471443,-0.06682 -6.4968408,0.728659 -6.6640624,0.773438 -0.4028732,0.108071 -0.6432269,0.522199 -0.5351562,0.925781 0.090708,0.337854 0.3970442,0.5625 0.7304687,0.5625 0.06502,0 0.1314489,-0.0099 0.1972657,-0.02734 0.050669,-0.01435 5.1559082,-1.356788 9.4570312,-0.347656 0.404379,0.09372 0.81493,-0.157771 0.910156,-0.564453 0.09514,-0.405885 -0.157771,-0.812977 -0.564453,-0.908203 -1.166919,-0.273831 -2.374102,-0.391788 -3.53125,-0.414063 z"
             id="path2"
             inkscape:connector-curvature="0" /><path
             inkscape:connector-curvature="0"
             id="path6"
             d="m 503.469,128.004 c -4.719,0 -8.533,3.823 -8.533,8.533 v 332.8 c 0,14.114 -11.486,25.6 -25.6,25.6 h -204.8 v -19.635 c 12.442,-4.352 44.851,-14.498 76.8,-14.498 74.334,0 124.809,16.461 125.312,16.631 2.568,0.853 5.436,0.427 7.68,-1.178 2.227,-1.604 3.541,-4.181 3.541,-6.921 V 93.871 c 0,-4.002 -2.773,-7.467 -6.682,-8.329 0,0 -6.69,-1.493 -18.125,-3.593 -4.617,-0.853 -9.079,2.219 -9.933,6.844 -0.853,4.642 2.21,9.088 6.844,9.941 4.361,0.802 8.013,1.51 10.829,2.074 v 357.188 c -19.337,-5.069 -62.276,-14.259 -119.467,-14.259 -37.18,0 -73.702,12.211 -85.001,16.35 -10.044,-4.437 -40.405,-16.35 -77.133,-16.35 -58.778,0 -107.196,9.694 -128,14.618 v -357.88 c 17.041,-4.19 67.371,-15.138 128,-15.138 31.113,0 57.796,9.685 68.267,14.063 v 335.804 c 0,3.072 1.655,5.914 4.326,7.424 2.671,1.519 5.965,1.476 8.602,-0.111 0.845,-0.503 85.393,-51.004 160.435,-76.015 3.49,-1.169 5.837,-4.42 5.837,-8.098 V 8.537 c 0,-2.799 -1.374,-5.419 -3.678,-7.014 -2.287,-1.596 -5.222,-1.963 -7.859,-0.981 -68.275,25.608 -137.36,68.599 -138.052,69.026 -3.994,2.5 -5.214,7.765 -2.714,11.759 2.492,3.994 7.757,5.214 11.759,2.714 0.631,-0.401 60.732,-37.794 123.477,-63.027 v 331.281 c -58.249,20.241 -119.066,53.291 -145.067,68.087 V 93.871 c 0,-3.234 -1.826,-6.187 -4.719,-7.637 -1.468,-0.725 -36.437,-17.963 -80.614,-17.963 -77.107,0 -136.388,16.683 -138.88,17.399 -3.661,1.041 -6.187,4.395 -6.187,8.201 v 375.467 c 0,2.671 1.263,5.197 3.388,6.81 1.502,1.135 3.311,1.724 5.146,1.724 0.785,0 1.57,-0.111 2.338,-0.333 0.589,-0.162 59.597,-16.734 134.195,-16.734 31.198,0 57.856,9.711 68.267,14.071 v 20.062 h -204.8 c -14.114,0 -25.6,-11.486 -25.6,-25.6 v -332.8 c 0,-4.71 -3.823,-8.533 -8.533,-8.533 -4.71,0 -8.533,3.823 -8.533,8.533 v 332.8 c 0,23.526 19.14,42.667 42.667,42.667 h 426.667 c 23.526,0 42.667,-19.14 42.667,-42.667 v -332.8 c -0.001,-4.711 -3.815,-8.534 -8.534,-8.534 z" /></g></g></g></g></g>
		</g>
	</g>
</g>
<g
   id="g30"
   transform="translate(-233.32534,-233.32512)">
</g>
<g
   id="g32"
   transform="translate(-233.32534,-233.32512)">
</g>
<g
   id="g34"
   transform="translate(-233.32534,-233.32512)">
</g>
<g
   id="g36"
   transform="translate(-233.32534,-233.32512)">
</g>
<g
   id="g38"
   transform="translate(-233.32534,-233.32512)">
</g>
<g
   id="g40"
   transform="translate(-233.32534,-233.32512)">
</g>
<g
   id="g42"
   transform="translate(-233.32534,-233.32512)">
</g>
<g
   id="g44"
   transform="translate(-233.32534,-233.32512)">
</g>
<g
   id="g46"
   transform="translate(-233.32534,-233.32512)">
</g>
<g
   id="g48"
   transform="translate(-233.32534,-233.32512)">
</g>
<g
   id="g50"
   transform="translate(-233.32534,-233.32512)">
</g>
<g
   id="g52"
   transform="translate(-233.32534,-233.32512)">
</g>
<g
   id="g54"
   transform="translate(-233.32534,-233.32512)">
</g>
<g
   id="g56"
   transform="translate(-233.32534,-233.32512)">
</g>
<g
   id="g58"
   transform="translate(-233.32534,-233.32512)">
</g>
</svg>

<?xml version="1.0" encoding="UTF-8" standalone="no"?>
<!-- Generator: Adobe Illustrator 19.0.0, SVG Export Plug-In . SVG Version: 6.00 Build 0)  -->

<svg
   xmlns:dc="http://purl.org/dc/elements/1.1/"
   xmlns:cc="http://creativecommons.org/ns#"
   xmlns:rdf="http://www.w3.org/1999/02/22-rdf-syntax-ns#"
   xmlns:svg="http://www.w3.org/2000/svg"
   xmlns="http://www.w3.org/2000/svg"
   xmlns:sodipodi="http://sodipodi.sourceforge.net/DTD/sodipodi-0.dtd"
   xmlns:inkscape="http://www.inkscape.org/namespaces/inkscape"
   version="1.1"
   id="Layer_1"
   x="0px"
   y="0px"
   viewBox="0 0 45.354326 45.354684"
   xml:space="preserve"
   sodipodi:docname="open-book.svg"
   inkscape:version="0.92.3 (2405546, 2018-03-11)"
   width="45.354328"
   height="45.354687"><metadata
   id="metadata65"><rdf:RDF><cc:Work
       rdf:about=""><dc:format>image/svg+xml</dc:format><dc:type
         rdf:resource="http://purl.org/dc/dcmitype/StillImage" /><dc:title></dc:title></cc:Work></rdf:RDF></metadata><defs
   id="defs63" /><sodipodi:namedview
   pagecolor="#ffffff"
   bordercolor="#666666"
   borderopacity="1"
   objecttolerance="10"
   gridtolerance="10"
   guidetolerance="10"
   inkscape:pageopacity="0"
   inkscape:pageshadow="2"
   inkscape:window-width="1920"
   inkscape:window-height="1143"
   id="namedview61"
   showgrid="false"
   inkscape:zoom="10.036216"
   inkscape:cx="32.878228"
   inkscape:cy="20.752775"
   inkscape:window-x="0"
   inkscape:window-y="27"
   inkscape:window-maximized="1"
   inkscape:current-layer="Layer_1"
   fit-margin-top="0"
   fit-margin-left="0"
   fit-margin-right="0"
   fit-margin-bottom="0" />
<g
   id="g28"
   transform="translate(-233.32534,-233.32512)">
	<g
   id="g26">
		<g
   id="g24">
			
			
			
			
			
			
			
			
			
			
			<g
   id="g854"><g
     id="g867"
     transform="matrix(0.0885825,0,0,0.0885825,233.32516,233.32513)"><g
       id="g880"><g
         id="g886"><path
           id="path2"
           transform="matrix(11.288911,0,0,11.288911,0.002032,-1.1288911e-4)"
           d="M 33.332031 8.3183594 C 33.234089 8.3090361 33.131592 8.318229 33.03125 8.3496094 C 30.71969 9.0805922 26.300722 11.326649 26.113281 11.421875 C 25.741412 11.610821 25.594257 12.064833 25.783203 12.4375 C 25.916963 12.698996 26.181894 12.851563 26.457031 12.851562 C 26.571923 12.851562 26.691116 12.823474 26.800781 12.767578 C 26.845338 12.744901 31.293916 10.486127 33.488281 9.7929688 C 33.885928 9.6667387 34.106699 9.2413083 33.980469 8.84375 C 33.886328 8.5455149 33.625857 8.3463293 33.332031 8.3183594 z M 33.332031 12.853516 C 33.234089 12.844192 33.131592 12.853385 33.03125 12.884766 C 30.71969 13.615748 26.300722 15.861805 26.113281 15.957031 C 25.741323 16.145978 25.594257 16.600078 25.783203 16.972656 C 25.916963 17.23424 26.181894 17.386719 26.457031 17.386719 C 26.571923 17.386719 26.691116 17.360583 26.800781 17.304688 C 26.845338 17.28201 31.293916 15.021283 33.488281 14.328125 C 33.885928 14.201895 34.106699 13.776465 33.980469 13.378906 C 33.886328 13.080671 33.625857 12.881486 33.332031 12.853516 z M 14.783203 13.613281 C 11.31176 13.546458 8.2863622 14.343893 8.1191406 14.388672 C 7.7162674 14.496743 7.4759137 14.910783 7.5839844 15.314453 C 7.6746929 15.652307 7.9810286 15.875 8.3144531 15.875 C 8.3794727 15.875 8.445902 15.866972 8.5117188 15.849609 C 8.5623878 15.835259 13.667627 14.490868 17.96875 15.5 C 18.373129 15.594518 18.78368 15.342229 18.878906 14.935547 C 18.974044 14.529662 18.721135 14.124523 18.314453 14.029297 C 17.147534 13.755466 15.940351 13.635556 14.783203 13.613281 z M 33.332031 17.388672 C 33.234089 17.379349 33.131592 17.390495 33.03125 17.421875 C 30.71969 18.152858 26.300722 20.396961 26.113281 20.492188 C 25.741323 20.681134 25.594257 21.137188 25.783203 21.509766 C 25.916963 21.77135 26.181894 21.921875 26.457031 21.921875 C 26.571923 21.921875 26.691116 21.895739 26.800781 21.839844 C 26.845338 21.817167 31.293916 19.556439 33.488281 18.863281 C 33.885928 18.737051 34.106699 18.311621 33.980469 17.914062 C 33.886328 17.615827 33.625857 17.416642 33.332031 17.388672 z M 14.783203 18.150391 C 11.31176 18.08368 8.2863622 18.87905 8.1191406 18.923828 C 7.7162674 19.031899 7.4759137 19.446028 7.5839844 19.849609 C 7.6746929 20.187463 7.9810286 20.410156 8.3144531 20.410156 C 8.3794727 20.410156 8.445902 20.402128 8.5117188 20.384766 C 8.5623878 20.370415 13.667627 19.026024 17.96875 20.035156 C 18.373129 20.129674 18.78368 19.879339 18.878906 19.472656 C 18.974044 19.066771 18.721135 18.659679 18.314453 18.564453 C 17.147534 18.290822 15.940351 18.172628 14.783203 18.150391 z M 33.332031 21.923828 C 33.234089 21.914505 33.131592 21.925651 33.03125 21.957031 C 30.71969 22.688014 26.300722 24.932118 26.113281 25.027344 C 25.741323 25.21629 25.594257 25.672344 25.783203 26.044922 C 25.916963 26.306506 26.181894 26.457031 26.457031 26.457031 C 26.571923 26.457031 26.691116 26.430896 26.800781 26.375 C 26.845338 26.352323 31.293916 24.091596 33.488281 23.398438 C 33.885928 23.272207 34.106699 22.846777 33.980469 22.449219 C 33.886328 22.150984 33.625857 21.951798 33.332031 21.923828 z M 14.783203 22.685547 C 11.31176 22.618649 8.2863622 23.413608 8.1191406 23.458984 C 7.7162674 23.567055 7.4759137 23.981184 7.5839844 24.384766 C 7.6746929 24.722619 7.9810286 24.945313 8.3144531 24.945312 C 8.3794727 24.945312 8.445902 24.937373 8.5117188 24.919922 C 8.5623879 24.905572 13.667627 23.561181 17.96875 24.570312 C 18.373129 24.66483 18.78368 24.414495 18.878906 24.007812 C 18.974044 23.601927 18.721135 23.194836 18.314453 23.099609 C 17.147534 22.825978 15.940351 22.707846 14.783203 22.685547 z M 33.332031 26.460938 C 33.234089 26.451607 33.131592 26.460807 33.03125 26.492188 C 30.71969 27.22317 26.300722 29.467274 26.113281 29.5625 C 25.741323 29.751446 25.594257 30.2075 25.783203 30.580078 C 25.916963 30.841662 26.181894 30.992187 26.457031 30.992188 C 26.571923 30.992188 26.691116 30.966052 26.800781 30.910156 C 26.845338 30.887479 31.293916 28.626752 33.488281 27.933594 C 33.885928 27.807364 34.106699 27.381933 33.980469 26.984375 C 33.886328 26.686206 33.625857 26.488928 33.332031 26.460938 z M 14.783203 27.220703 C 11.31176 27.153693 8.2863622 27.948764 8.1191406 27.994141 C 7.7162674 28.102211 7.4759137 28.51634 7.5839844 28.919922 C 7.6746929 29.257776 7.9810286 29.480469 8.3144531 29.480469 C 8.3794727 29.480469 8.445902 29.472529 8.5117188 29.455078 C 8.5623879 29.440728 13.667627 28.09829 17.96875 29.107422 C 18.373129 29.201939 18.78368 28.949651 18.878906 28.542969 C 18.974044 28.137084 18.721135 27.729992 18.314453 27.634766 C 17.147534 27.360935 15.940351 27.24304 14.783203 27.220703 z M 14.783203 31.755859 C 11.31176 31.689036 8.2863622 32.484518 8.1191406 32.529297 C 7.7162674 32.637368 7.4759137 33.051496 7.5839844 33.455078 C 7.6746929 33.792932 7.9810286 34.017578 8.3144531 34.017578 C 8.3794727 34.017578 8.445902 34.007685 8.5117188 33.990234 C 8.5623879 33.975884 13.667627 32.633446 17.96875 33.642578 C 18.373129 33.736298 18.78368 33.484807 18.878906 33.078125 C 18.974044 32.67224 18.721135 32.265148 18.314453 32.169922 C 17.147534 31.896091 15.940351 31.778134 14.783203 31.755859 z "
           style="stroke-width:0.0885825" /><path
           d="m 503.469,128.004 c -4.719,0 -8.533,3.823 -8.533,8.533 v 332.8 c 0,14.114 -11.486,25.6 -25.6,25.6 h -204.8 v -19.635 c 12.442,-4.352 44.851,-14.498 76.8,-14.498 74.334,0 124.809,16.461 125.312,16.631 2.568,0.853 5.436,0.427 7.68,-1.178 2.227,-1.604 3.541,-4.181 3.541,-6.921 V 93.871 c 0,-4.002 -2.773,-7.467 -6.682,-8.329 0,0 -6.69,-1.493 -18.125,-3.593 -4.617,-0.853 -9.079,2.219 -9.933,6.844 -0.853,4.642 2.21,9.088 6.844,9.941 4.361,0.802 8.013,1.51 10.829,2.074 v 357.188 c -19.337,-5.069 -62.276,-14.259 -119.467,-14.259 -37.18,0 -73.702,12.211 -85.001,16.35 -10.044,-4.437 -40.405,-16.35 -77.133,-16.35 -58.778,0 -107.196,9.694 -128,14.618 v -357.88 c 17.041,-4.19 67.371,-15.138 128,-15.138 31.113,0 57.796,9.685 68.267,14.063 v 335.804 c 0,3.072 1.655,5.914 4.326,7.424 2.671,1.519 5.965,1.476 8.602,-0.111 0.845,-0.503 85.393,-51.004 160.435,-76.015 3.49,-1.169 5.837,-4.42 5.837,-8.098 V 8.537 c 0,-2.799 -1.374,-5.419 -3.678,-7.014 -2.287,-1.596 -5.222,-1.963 -7.859,-0.981 -68.275,25.608 -137.36,68.599 -138.052,69.026 -3.994,2.5 -5.214,7.765 -2.714,11.759 2.492,3.994 7.757,5.214 11.759,2.714 0.631,-0.401 60.732,-37.794 123.477,-63.027 v 331.281 c -58.249,20.241 -119.066,53.291 -145.067,68.087 V 93.871 c 0,-3.234 -1.826,-6.187 -4.719,-7.637 -1.468,-0.725 -36.437,-17.963 -80.614,-17.963 -77.107,0 -136.388,16.683 -138.88,17.399 -3.661,1.041 -6.187,4.395 -6.187,8.201 v 375.467 c 0,2.671 1.263,5.197 3.388,6.81 1.502,1.135 3.311,1.724 5.146,1.724 0.785,0 1.57,-0.111 2.338,-0.333 0.589,-0.162 59.597,-16.734 134.195,-16.734 31.198,0 57.856,9.711 68.267,14.071 v 20.062 h -204.8 c -14.114,0 -25.6,-11.486 -25.6,-25.6 v -332.8 c 0,-4.71 -3.823,-8.533 -8.533,-8.533 -4.71,0 -8.533,3.823 -8.533,8.533 v 332.8 c 0,23.526 19.14,42.667 42.667,42.667 h 426.667 c 23.526,0 42.667,-19.14 42.667,-42.667 v -332.8 c -0.001,-4.711 -3.815,-8.534 -8.534,-8.534 z"
           id="path6"
           inkscape:connector-curvature="0" /></g></g></g></g>
		</g>
	</g>
</g>
<g
   id="g30"
   transform="translate(-233.32534,-233.32512)">
</g>
<g
   id="g32"
   transform="translate(-233.32534,-233.32512)">
</g>
<g
   id="g34"
   transform="translate(-233.32534,-233.32512)">
</g>
<g
   id="g36"
   transform="translate(-233.32534,-233.32512)">
</g>
<g
   id="g38"
   transform="translate(-233.32534,-233.32512)">
</g>
<g
   id="g40"
   transform="translate(-233.32534,-233.32512)">
</g>
<g
   id="g42"
   transform="translate(-233.32534,-233.32512)">
</g>
<g
   id="g44"
   transform="translate(-233.32534,-233.32512)">
</g>
<g
   id="g46"
   transform="translate(-233.32534,-233.32512)">
</g>
<g
   id="g48"
   transform="translate(-233.32534,-233.32512)">
</g>
<g
   id="g50"
   transform="translate(-233.32534,-233.32512)">
</g>
<g
   id="g52"
   transform="translate(-233.32534,-233.32512)">
</g>
<g
   id="g54"
   transform="translate(-233.32534,-233.32512)">
</g>
<g
   id="g56"
   transform="translate(-233.32534,-233.32512)">
</g>
<g
   id="g58"
   transform="translate(-233.32534,-233.32512)">
</g>
</svg>
